X: 1
T: L\aangdans fr\aan Soller\"on
O: Sweden
Z: John Chambers <jc@trillian.mit.edu>
M: 3/4
L: 1/8
K: Dm
|: "A7"A2 ^c2 "Dm"d2 | "A7"e3 g "Dm"f2 | d2 fe "A7"d^c |1,3 "Dm"d3 ^c "A7"A2 \
                                                      :|2,4 "Dm"d6 :|
|: "A7".a2 .g2 .e3 | g3 e "Dm"f2 | .f2 "A7"a2 g2 | .e2 ge "Dm"f2 | "A7"d2 fe d^c | "Dm"d6 :|
